X:1
T:Fitba' Crazy
M:4/4
L:1/8
K:F
 C| F2 F2 F A2 A| B2 D2 D3 F| E2 E2 E G2 G/2G/2| AA FD C3| G| FF FF F A2 A|\
 B3/2 B/2 DD D3 A/2B/2| cB AG FE FG| AF GE F2||
